public/assets/images/logo.svg

<svg width="200" height="22" viewBox="0 0 200 22" fill="none" xmlns="http://www.w3.org/2000/svg">
<path fill-rule="evenodd" clip-rule="evenodd" d="M158.4 20.6461V21.5692H162.623V20.6461H160.934V3.26189L169.954 21.8461H171.191V1.26151H172.82V0.369649H168.535V1.26151H170.226V13.2001L164.011 0.369649H158.4V1.26151H159.969V20.6461H158.4ZM156.53 20.6461H155.052V1.26151H156.53V0.369649H149.29V1.26151H150.738V20.6461H149.29V21.5692H156.53V20.6461ZM177.737 14.277L179.517 7.63102L179.577 7.41564L181.296 14.277H179.517H177.737ZM177.436 15.2612H179.517L181.538 15.2612L182.896 20.6461H181.387V21.5692H188.205V20.6461H187.119L181.87 0.369649H180.633L179.517 4.33879L174.962 20.6461H173.575V21.5692H177.828V20.6461H175.957L177.436 15.2612ZM128.988 20.6461V21.5692H132.819V20.6461H131.371V2.15465L135.805 21.5692H136.831L141.718 2.67729V20.6461H140.119V21.5692H147.118V20.6461H145.851V1.26151H147.118V0.369649H141.356L137.947 13.5078L135.111 0.369649H128.988V1.26151H130.405V20.6461H128.988ZM189.502 15.1693V21.5692H190.196L191.01 20.4918C191.643 20.9538 192.277 21.323 192.881 21.5692C193.484 21.8149 194.117 21.938 194.721 21.938C196.259 21.938 197.526 21.323 198.522 20.1226C199.487 18.9231 200 17.3846 200 15.477C200 13.9693 199.698 12.6771 199.095 11.5382C198.522 10.431 197.587 9.41559 196.319 8.5233C196.163 8.42208 195.988 8.30045 195.782 8.15844C195.551 7.99831 195.282 7.81224 194.962 7.60025C192.639 6.00071 191.462 4.6469 191.462 3.47727C191.462 2.73883 191.734 2.09269 192.277 1.59996C192.82 1.07733 193.514 0.800836 194.298 0.800836C195.385 0.800836 196.319 1.23117 197.043 2.09269C197.798 2.95378 198.371 4.21571 198.702 5.87679H199.397V0.277344H198.702L198.038 1.35381C197.435 0.892287 196.833 0.554261 196.259 0.338881C195.686 0.123929 195.083 0 194.449 0C193.001 0 191.824 0.523492 190.89 1.59996C189.955 2.64652 189.502 4.0311 189.502 5.6926C189.502 7.13872 189.804 8.40023 190.437 9.44636C191.071 10.4925 192.307 11.6925 194.147 13.0159C195.747 14.1227 196.772 15.015 197.195 15.6308C197.616 16.2765 197.828 16.9534 197.828 17.7534C197.828 18.7077 197.557 19.4769 196.954 20.0923C196.38 20.7081 195.626 21.0153 194.721 21.0153C193.484 21.0153 192.489 20.4918 191.704 19.5077C190.92 18.4923 190.407 17.0462 190.196 15.1693H189.502ZM15.2035 21.5996V15.1997H15.8973C16.1085 17.077 16.6218 18.5227 17.4057 19.5385C18.1904 20.5535 19.1855 21.0462 20.4227 21.0462C21.3277 21.0462 22.0815 20.7381 22.6551 20.1227C23.2584 19.5073 23.5601 18.7385 23.5601 17.7843C23.5601 17.0155 23.3489 16.3074 22.8964 15.6925C22.4745 15.0463 21.4786 14.1844 19.8492 13.0459C18.0094 11.7233 16.7722 10.5537 16.1387 9.50798C15.506 8.43109 15.2035 7.16915 15.2035 5.75422C15.2035 4.06153 15.656 2.67737 16.5916 1.63124C17.5267 0.584687 18.7037 0.030854 20.1814 0.030854C20.7843 0.030854 21.3876 0.153928 21.9612 0.369308C22.534 0.584687 23.1381 0.953909 23.7411 1.41586L24.4349 0.308198H25.1287V5.90764H24.4349C24.0725 4.27691 23.5299 3.01583 22.7753 2.15474C22.0216 1.29236 21.1166 0.862031 20.0004 0.862031C19.2157 0.862031 18.552 1.10775 18.0094 1.63124C17.4358 2.15474 17.1647 2.76968 17.1647 3.50812C17.1647 4.6769 18.3408 6.03071 20.6942 7.63068C20.9419 7.80368 21.167 7.95929 21.3671 8.09765C21.6303 8.27953 21.8502 8.43159 22.0216 8.55416C23.2886 9.47721 24.2237 10.4618 24.7965 11.6002C25.3998 12.7079 25.7019 14.031 25.7019 15.5083C25.7019 17.4155 25.1886 18.9843 24.2237 20.1842C23.2278 21.3842 21.9612 21.9688 20.4227 21.9688C19.819 21.9688 19.2157 21.8462 18.5822 21.5996C17.9792 21.3842 17.3457 21.0154 16.7118 20.5227L15.8973 21.5996H15.2035ZM40.2417 21.5996H40.8455L44.4952 21.5996V20.7082H42.5951L44.1034 15.292H46.1849L48.2065 15.292L49.5632 20.7081H48.0548V21.5996H54.8729V20.7081H53.7865L48.5379 0.400503H47.3011L46.1849 4.40041L41.6294 20.7082L40.8455 20.7081H40.2417V21.5996ZM40.8455 7.13881H40.6942C40.3021 5.01578 39.8194 3.50812 39.2165 2.61584C38.6131 1.72312 37.7982 1.26159 36.7726 1.26159H36.5312V20.7081H38.6731V21.5996H30.0756V20.7081H32.2178V1.26159H31.9765C30.9504 1.26159 30.1364 1.72312 29.5029 2.64618C28.8995 3.53846 28.4169 5.04655 28.0544 7.13881H27.2705L27.4511 0.400503H40.8455H41.2678L41.4488 7.13881H40.8455ZM0 21.5996V20.7081H1.50791V1.32313H0V0.400503H12.579L12.7902 5.81533H12.0364C11.6137 4.06153 11.0104 2.89275 10.3165 2.24619C9.59295 1.63124 8.44662 1.32313 6.8478 1.32313H5.7618V10.031C6.81721 10.031 7.5718 9.72336 7.99413 9.16996C8.44662 8.61527 8.68796 7.66145 8.74787 6.30763H9.47187V15.1382H8.74787C8.68796 13.5694 8.41646 12.4921 7.99413 11.9075C7.5718 11.2921 6.81721 10.9849 5.7618 10.9849V20.7081H6.87797C8.68796 20.7081 9.98512 20.2462 10.7992 19.3231C11.6439 18.4001 12.1571 16.8309 12.3989 14.6151H13.1823L12.9113 21.5996H0ZM46.1849 7.66145L44.4051 14.3079H46.1849L47.9648 14.3079L46.2449 7.44607L46.1849 7.66145ZM63.6514 1.63124C63.1381 1.41586 62.4744 1.32313 61.6905 1.32313H61.5393V20.677C61.6302 20.7081 61.7207 20.7081 61.8108 20.7081C61.9017 20.7381 62.0521 20.7381 62.2331 20.7381C62.7765 20.7381 63.2592 20.6462 63.6514 20.4919C64.2241 20.2765 64.6464 19.9077 64.9787 19.3843C65.5217 18.4924 65.7928 16.9232 65.7928 14.7074V8.06144C65.7928 5.32389 65.4915 3.50812 64.9179 2.61584C64.6171 2.18465 64.1939 1.8462 63.6514 1.63124ZM63.6514 21.5073C63.0179 21.5692 62.1732 21.5996 61.2079 21.5996H60.8157H55.7775V20.7081H57.2862V1.32313H55.7775V0.400503H60.8157C61.9017 0.400503 62.8369 0.461613 63.6514 0.584687C63.9534 0.615456 64.2543 0.676993 64.5266 0.738957C65.4915 0.923141 66.3362 1.29236 67.0899 1.78466C68.2362 2.5231 69.1111 3.66154 69.7148 5.23073C70.3181 6.76916 70.6496 8.64604 70.6496 10.8306C70.6496 13.1382 70.288 15.1079 69.5937 16.7689C68.8999 18.4304 67.9048 19.6924 66.6077 20.5227C66.0341 20.9231 65.3704 21.1996 64.6171 21.3539C64.3452 21.415 64.0431 21.4769 63.6514 21.5073ZM80.2735 0.923141C79.2772 0.923141 78.5235 1.44663 78.071 2.49276C77.6185 3.53846 77.3771 5.23073 77.3771 7.5076V14.4613C77.3771 16.8001 77.6185 18.5227 78.071 19.5693C78.5536 20.615 79.2772 21.1385 80.2735 21.1385C81.2984 21.1385 82.0529 20.615 82.5054 19.5693C82.9579 18.5227 83.1691 16.8001 83.1691 14.4613V7.5076C83.1691 5.23073 82.9579 3.53846 82.5054 2.49276C82.0529 1.44663 81.2984 0.923141 80.2735 0.923141ZM80.2735 22C79.4285 22 78.5536 21.7846 77.7094 21.3231C76.8639 20.8923 76.08 20.2462 75.3556 19.4154C74.3906 18.3074 73.6666 17.077 73.2141 15.6925C72.7617 14.3079 72.5203 12.7387 72.5203 10.9849C72.5203 9.23107 72.7617 7.66145 73.2141 6.27729C73.6968 4.95382 74.3906 3.69273 75.3556 2.58507C76.0498 1.75432 76.8341 1.13895 77.6788 0.676993C78.5235 0.246234 79.3983 0.030854 80.2735 0.030854C81.1781 0.030854 82.0831 0.277002 82.9278 0.707761C83.8026 1.13895 84.5865 1.75432 85.2803 2.58507C86.2155 3.69273 86.9097 4.95382 87.3924 6.27729C87.8449 7.66145 88.0561 9.23107 88.0561 10.9849C88.0561 12.7387 87.8449 14.3079 87.3924 15.6925C86.9399 17.077 86.2155 18.3074 85.2803 19.4154C84.5865 20.2462 83.8026 20.8923 82.9278 21.3231C82.0529 21.7846 81.1781 22 80.2735 22ZM98.7727 0.194611C99.8612 0.194611 100.807 0.2429 101.611 0.388196C101.943 0.388196 102.226 0.435631 102.463 0.53221C103.456 0.726222 104.308 1.06339 105.018 1.54586C106.153 2.26978 107.053 3.37958 107.667 4.9727C108.235 6.51669 108.566 8.39827 108.566 10.57C108.566 12.8383 108.235 14.8161 107.526 16.4571C106.862 18.1463 105.869 19.4006 104.544 20.2211C103.977 20.607 103.315 20.8963 102.557 21.0411C102.321 21.0899 101.989 21.1377 101.611 21.186C100.948 21.283 100.144 21.283 99.1499 21.283H99.1498H98.7727H93.7571V20.4138H95.2717V1.11168H93.7571V0.194611H98.7727ZM101.611 1.40142C101.091 1.20826 100.428 1.11168 99.6714 1.11168H99.529V20.3655C99.6237 20.4138 99.6714 20.4138 99.7661 20.4138H100.191C100.76 20.4138 101.233 20.3655 101.611 20.1728C102.179 19.98 102.605 19.5937 102.937 19.0625C103.456 18.1942 103.74 16.6502 103.74 14.4306V7.81965C103.74 5.06886 103.456 3.23514 102.841 2.36636C102.557 1.98004 102.179 1.64244 101.611 1.40142ZM110.411 21.283V20.4138H111.925V1.11168H110.411V0.194611H122.948L123.185 5.55175H122.429C122.002 3.81418 121.388 2.60738 120.678 2.02833C119.968 1.40142 118.832 1.11168 117.27 1.11168H116.183V9.79738C117.223 9.74866 117.982 9.46021 118.406 8.92945C118.832 8.3504 119.069 7.43333 119.116 6.08208H119.873V14.8644H119.116C119.069 13.2725 118.832 12.2106 118.406 11.6315C117.933 11.0042 117.223 10.7145 116.183 10.7145V20.4138H117.27C119.069 20.4138 120.347 19.9318 121.198 19.0151C122.002 18.098 122.57 16.5536 122.76 14.334H123.563L123.279 21.283H110.411Z" fill="#004071"/>
</svg>

<svg xmlns="http://www.w3.org/2000/svg" width="200" height="22" fill="none"><path fill="#004071" fill-rule="evenodd" d="M158.4 20.646v.923h4.223v-.923h-1.689V3.262l9.02 18.584h1.237V1.262h1.629V.37h-4.285v.892h1.691V13.2L164.011.37H158.4v.892h1.569v19.384H158.4Zm-1.87 0h-1.478V1.262h1.478V.37h-7.24v.892h1.448v19.384h-1.448v.923h7.24v-.923Zm21.207-6.369 1.78-6.646.06-.215 1.719 6.861h-3.559Zm-.301.984h4.102l1.358 5.385h-1.509v.923h6.818v-.923h-1.086L181.87.37h-1.237l-1.116 3.969-4.555 16.307h-1.387v.923h4.253v-.923h-1.871l1.479-5.385Zm-48.448 5.385v.923h3.831v-.923h-1.448V2.155l4.434 19.414h1.026l4.887-18.892v17.97h-1.599v.922h6.999v-.923h-1.267V1.262h1.267V.37h-5.762l-3.409 13.138L135.111.37h-6.123v.892h1.417v19.384h-1.417Zm60.514-5.477v6.4h.694l.814-1.077c.633.462 1.267.831 1.871 1.077a4.912 4.912 0 0 0 1.84.369c1.538 0 2.805-.615 3.801-1.815.965-1.2 1.478-2.738 1.478-4.646 0-1.508-.302-2.8-.905-3.939-.573-1.107-1.508-2.122-2.776-3.015-.156-.1-.331-.223-.537-.365-.231-.16-.5-.346-.82-.558-2.323-1.6-3.5-2.953-3.5-4.123 0-.738.272-1.384.815-1.877a2.847 2.847 0 0 1 2.021-.8c1.087 0 2.021.431 2.745 1.293.755.86 1.328 2.123 1.659 3.784h.695v-5.6h-.695l-.664 1.077a7.029 7.029 0 0 0-1.779-1.015 5.121 5.121 0 0 0-1.81-.339c-1.448 0-2.625.523-3.559 1.6-.935 1.047-1.388 2.431-1.388 4.093 0 1.446.302 2.707.935 3.753.634 1.046 1.87 2.247 3.71 3.57 1.6 1.107 2.625 1.999 3.048 2.615.421.645.633 1.322.633 2.122 0 .955-.271 1.724-.874 2.34-.574.615-1.328.922-2.233.922-1.237 0-2.232-.523-3.017-1.507-.784-1.016-1.297-2.462-1.508-4.339h-.694ZM15.203 21.6v-6.4h.694c.211 1.878.725 3.324 1.509 4.34.784 1.014 1.78 1.507 3.017 1.507.905 0 1.659-.308 2.232-.923.603-.616.905-1.385.905-2.339 0-.768-.211-1.477-.664-2.091-.422-.647-1.417-1.509-3.047-2.647-1.84-1.323-3.077-2.492-3.71-3.538-.633-1.077-.935-2.339-.935-3.754 0-1.692.452-3.077 1.388-4.123.935-1.046 2.112-1.6 3.59-1.6.602 0 1.206.123 1.78.338.572.216 1.176.585 1.78 1.047l.693-1.108h.694v5.6h-.694c-.362-1.631-.905-2.892-1.66-3.753C22.022 1.292 21.117.862 20 .862c-.784 0-1.448.246-1.99.77-.574.523-.845 1.138-.845 1.876 0 1.169 1.176 2.523 3.53 4.123.247.173.472.328.672.467.263.182.483.334.655.456 1.267.923 2.202 1.908 2.775 3.046.603 1.108.905 2.431.905 3.908 0 1.908-.513 3.476-1.478 4.676-.996 1.2-2.263 1.785-3.801 1.785-.604 0-1.207-.123-1.84-.37-.604-.215-1.237-.584-1.871-1.076l-.815 1.077h-.694Zm25.039 0h4.254v-.89h-1.9l1.507-5.417h4.103l1.357 5.416h-1.508v.892h6.818v-.892h-1.087L48.538.401H47.3l-1.116 4-4.556 16.307h-1.387v.892Zm.604-14.46h-.152c-.392-2.123-.875-3.63-1.477-4.523-.604-.893-1.419-1.354-2.444-1.354h-.242v19.446h2.142v.892h-8.597v-.892h2.142V1.262h-.242c-1.026 0-1.84.461-2.473 1.384-.604.892-1.086 2.4-1.449 4.493h-.784L27.451.4h13.817l.18 6.738h-.602ZM0 21.599v-.89h1.508V1.322H0V.401h12.579l.211 5.414h-.754c-.422-1.753-1.026-2.922-1.72-3.569-.723-.615-1.87-.923-3.468-.923H5.762v8.708c1.055 0 1.81-.308 2.232-.861.453-.555.694-1.509.754-2.862h.724v8.83h-.724c-.06-1.569-.332-2.646-.754-3.23-.422-.616-1.177-.923-2.232-.923v9.723h1.116c1.81 0 3.107-.462 3.921-1.385.845-.923 1.358-2.492 1.6-4.708h.783l-.27 6.985H0ZM46.185 7.662l-1.78 6.647h3.56l-1.72-6.862-.06.215Zm17.466-6.03c-.513-.215-1.177-.308-1.96-.308h-.152v19.354c.091.031.182.031.272.031.09.03.241.03.422.03a3.9 3.9 0 0 0 1.418-.246c.573-.216.995-.584 1.328-1.108.543-.892.814-2.46.814-4.677V8.061c0-2.737-.302-4.553-.875-5.445-.3-.431-.724-.77-1.267-.985Zm0 19.876c-.633.062-1.478.093-2.443.093H55.778v-.892h1.508V1.323h-1.508V.401h5.038c1.086 0 2.02.06 2.835.184.302.03.603.092.876.154.965.184 1.81.553 2.563 1.046 1.146.738 2.021 1.877 2.625 3.446.603 1.538.935 3.415.935 5.6 0 2.307-.362 4.277-1.056 5.938-.694 1.661-1.69 2.923-2.986 3.754-.574.4-1.238.677-1.99.83a6.45 6.45 0 0 1-.967.154ZM80.273.923c-.996 0-1.75.524-2.202 1.57-.453 1.045-.694 2.738-.694 5.015v6.953c0 2.34.242 4.062.694 5.108.483 1.046 1.206 1.57 2.203 1.57 1.024 0 1.779-.524 2.231-1.57.453-1.046.664-2.769.664-5.108V7.508c0-2.277-.211-3.97-.664-5.015-.452-1.046-1.207-1.57-2.231-1.57Zm0 21.077a5.33 5.33 0 0 1-2.564-.677c-.845-.43-1.629-1.077-2.353-1.908-.965-1.108-1.69-2.338-2.142-3.722-.452-1.385-.694-2.954-.694-4.708s.242-3.324.694-4.708c.483-1.323 1.177-2.584 2.142-3.692A7.982 7.982 0 0 1 77.679.677a5.68 5.68 0 0 1 2.594-.646c.905 0 1.81.246 2.655.677.875.43 1.659 1.046 2.352 1.877a12.157 12.157 0 0 1 2.112 3.692c.453 1.384.664 2.954.664 4.708s-.211 3.323-.664 4.708c-.452 1.384-1.176 2.614-2.112 3.722-.694.831-1.477 1.477-2.352 1.908-.875.462-1.75.677-2.654.677ZM98.773.195c1.088 0 2.034.048 2.838.193.332 0 .615.048.852.144.993.194 1.845.531 2.555 1.014 1.135.724 2.035 1.834 2.649 3.427.568 1.544.899 3.425.899 5.597 0 2.268-.331 4.246-1.04 5.887-.664 1.69-1.657 2.944-2.982 3.764a5.26 5.26 0 0 1-1.987.82c-.236.049-.568.097-.946.145-.663.097-1.467.097-2.461.097h-5.393v-.87h1.515V1.113h-1.515V.195h5.016ZM101.61 1.4c-.52-.193-1.183-.29-1.94-.29h-.142v19.255a.42.42 0 0 0 .237.048h.425c.569 0 1.042-.049 1.42-.241.568-.193.994-.58 1.326-1.11.519-.869.803-2.413.803-4.632V7.82c0-2.751-.284-4.585-.899-5.454a2.856 2.856 0 0 0-1.23-.965Zm8.8 19.882v-.87h1.514V1.113h-1.514V.195h12.537l.237 5.357h-.756c-.427-1.738-1.041-2.945-1.751-3.524-.71-.627-1.846-.916-3.408-.916h-1.087v8.685c1.04-.048 1.799-.337 2.223-.868.426-.579.663-1.496.71-2.847h.757v8.782h-.757c-.047-1.591-.284-2.653-.71-3.232-.473-.628-1.183-.918-2.223-.918v9.7h1.087c1.799 0 3.077-.482 3.928-1.399.804-.917 1.372-2.461 1.562-4.681h.803l-.284 6.949h-12.868Z" clip-rule="evenodd"/></svg>
